web/packages/design/src/ResourceIcon/assets/apollo.io-light.svg

<svg width="72" height="72" viewBox="0 0 72 72" fill="none" xmlns="http://www.w3.org/2000/svg">
<path d="M0 65.6197L35.9272 6.25049L72 65.7505H60.9743L35.9272 23.6407L16.4077 56.5906C16.5688 56.5906 16.7298 56.5918 16.8909 56.593C17.2936 56.596 17.6963 56.599 18.099 56.5834C18.5236 56.5688 18.9483 56.5251 19.3583 56.4453C22.0966 55.9006 23.9563 53.7793 25.3767 51.5419C27.1218 48.7834 28.7747 45.9612 30.4269 43.1402C31.4504 41.3926 32.4736 39.6456 33.5182 37.9145L35.9124 34.0938L41.3158 43.0721L37.1279 50.0456C36.6789 50.7947 36.231 51.5449 35.783 52.2953C34.602 54.2737 33.4201 56.2534 32.2151 58.2177C30.7948 60.5349 28.9716 62.4454 26.5629 63.7602C24.337 64.9733 21.811 65.6197 19.2412 65.6197H0Z" fill="black"/>
<path d="M47.6992 15.2065H57.8544L52.9709 24.1559L47.6992 15.2065Z" fill="black"/>
</svg>

<svg xmlns="http://www.w3.org/2000/svg" width="72" height="72" fill="none" viewBox="0 0 72 72"><path fill="#000" d="M0 65.62 35.927 6.25 72 65.75H60.974L35.927 23.64l-19.52 32.95q.243 0 .484.003c.403.003.805.006 1.208-.01.425-.014.85-.058 1.26-.138 2.738-.544 4.597-2.666 6.018-4.903 1.745-2.759 3.398-5.58 5.05-8.402a463 463 0 0 1 3.091-5.226l2.394-3.82 5.404 8.978-4.188 6.974q-.674 1.124-1.345 2.25a573 573 0 0 1-3.568 5.922c-1.42 2.317-3.243 4.227-5.652 5.542a15.3 15.3 0 0 1-7.322 1.86zm47.7-50.413h10.154l-4.883 8.949z"/></svg>
